dist/svg/u1F5FF.svg

<?xml version="1.0" encoding="UTF-8"?><svg id="Layer_1" xmlns="http://www.w3.org/2000/svg" viewBox="0 0 40 40"><rect y="0" width="40" height="40" style="fill:none;"/><g><path d="M31.36655,11.30747l-11.36655-2.73115-11.36655,2.73115-2.35198,19.51945c-.39556,3.28281,2.16737,6.17309,5.47392,6.17309H28.24461c3.30655,0,5.86948-2.89028,5.47392-6.17309l-2.35198-19.51945Z" style="fill:#8a94a0;"/><path d="M20,28.74081c-3.73143,0-6.28115,.81717-7.43061,1.28252-.32458,.1314-.62561-.21832-.45961-.52665,.88778-1.64897,4.18899-3.29123,7.89022-3.29123s7.00244,1.64226,7.89022,3.29123c.166,.30833-.13503,.65805-.45961,.52665-1.14946-.46535-3.69918-1.28252-7.43061-1.28252Z" style="fill:#4e5968;"/><polygon points="18.24676 14.2831 8.27491 14.2831 8.83013 9.67497 18.24676 7.1005 18.24676 14.2831" style="fill:#4e5968;"/><polygon points="21.75324 14.2831 31.72509 14.2831 31.16987 9.67497 21.75324 7.1005 21.75324 14.2831" style="fill:#4e5968;"/><path d="M24.85657,10.15331l6.50998,1.15416-.41614-3.45354c-.33376-2.76988-2.684-4.85393-5.47392-4.85393H14.52345c-2.78995,0-5.14021,2.0841-5.47393,4.85402l-.41607,3.45344,6.50998-1.15416c.599-.1062,1.13401,.38847,1.075,.99394l-.87948,9.02471c-.10528,1.08034,.74372,2.0161,1.82917,2.0161h5.66376c1.08546,0,1.93445-.93576,1.82917-2.0161l-.87948-9.02471c-.059-.60547,.476-1.10013,1.075-.99394Z" style="fill:#afb7c0;"/></g></svg>

<svg id="Layer_1" data-name="Layer 1" xmlns="http://www.w3.org/2000/svg" viewBox="0 0 40 40"><defs><style>.cls-1{fill:none;}.cls-2{fill:#8a94a0;}.cls-3{fill:#4e5968;}.cls-4{fill:#afb7c0;}</style></defs><rect class="cls-1" width="40" height="40"/><path class="cls-2" d="M31.367,11.307,20,8.576,8.633,11.307,6.281,30.827A5.514,5.514,0,0,0,11.755,37h16.49a5.514,5.514,0,0,0,5.474-6.173Z"/><path class="cls-3" d="M20,28.741a20.05,20.05,0,0,0-7.431,1.282.37.37,0,0,1-.459-.526C13,27.848,16.3,26.205,20,26.205s7,1.643,7.89,3.292a.37.37,0,0,1-.459.526A20.05,20.05,0,0,0,20,28.741Z"/><polygon class="cls-3" points="18.247 14.283 8.275 14.283 8.83 9.675 18.247 7.101 18.247 14.283"/><polygon class="cls-3" points="21.753 14.283 31.725 14.283 31.17 9.675 21.753 7.101 21.753 14.283"/><path class="cls-4" d="M24.857,10.153l6.51,1.154L30.95,7.854A5.513,5.513,0,0,0,25.476,3H14.523A5.512,5.512,0,0,0,9.05,7.854l-.417,3.453,6.51-1.154a.919.919,0,0,1,1.075.994l-.879,9.025a1.838,1.838,0,0,0,1.829,2.016h5.664a1.838,1.838,0,0,0,1.829-2.016l-.879-9.025A.919.919,0,0,1,24.857,10.153Z"/></svg>
